X:6
T:Fred Pigeon's #1
R:march, polka
O:Lester Bailey 2021-11-9
N:A tune by the eponymous Fred Pigeon who was a fiddler from Stockland, Devon.
S:https://www.youtube.com/watch?v=Wz_JiV2CXJs
M:4/4
L:1/8
K:G
Bc \
| d2 G2 G2 AB | c2 E2 E2 G2 | FGAB cBAc | e2 d2 dcBc |
| d2 G2 G2 AB | c2 E2 E2 G2 | FGAB cA F2 | A2 G2 G2 :|
|: ef \
| g2 g2 g2 ag | f2 e2 e3 B | c2 c2 cBAc | e2 d2 d2 ef |
| g2 g2 g2 ag | f2 e2 e3 B | FGAB cA F2 | A2 G2 G2 :|
